X:1025
T:Abbess, The
R:Air
C:Andy Cutting 2010
O:England
Z:Paul Hardy's Session Tunebook 2022 (see www.paulhardy.net). Creative Commons cc by-nc-sa licenced.
M:4/4
L:1/8
Q:1/4=100
K:G
DGA|"G"B4 "Em"B3 c|"G"d3 G G2 "Em"Bd|"C"e2 e2-edcB|"Am"cBAG "D"d2 GF|
"C"E2 c2 "Am"A3 F|"Bm"D2 d2 "Em"BAGF|"Am"E2 cB "D7"A2 GF|"G"G4-G:|
ABc|"G"d4 "C"e3 d|"Am"cBAG "D7"d2 dc|"Bm"BAGF "Em"EGcB|"Am"BAAB "D"D2 GF|
"C"E2 c2 "Am"A3 F|"Bm"D2 d2 "Em"BAGF|"Am"E2 cB "D7"A2 GF|"G"FG G2 GABc||
"G"dGBd "Em"e2 ed|"Am"cBce "Bm"ddef|"G"gBfg "Em"e2 dB|"Am"ABef "D"d3c|
M:6/4
%%MIDI beatstring fpmpmp
%%MIDI gchord czczczczczcz
"Bm"BAGF "C"E2 c2 "Am"A3 F|\
M:4/4
%%MIDI beatstring fpmpfpmp
%%MIDI gchord czczczcz
"Bm"D2 d2 "Em"BAGF|"Am"E2 cB "D7"A2 GF|"G"FG-G3|]

